source/images/icons/icon-editorial/attention.svg

<?xml version="1.0" encoding="UTF-8"?>
<svg width="80px" height="80px" viewBox="0 0 80 80" version="1.1" xmlns="http://www.w3.org/2000/svg" xmlns:xlink="http://www.w3.org/1999/xlink">
    <!-- Generator: Sketch 55.2 (78181) - https://sketchapp.com -->
    <title>Illustrative Icons/Attention</title>
    <desc>Created with Sketch.</desc>
    <g id="Illustrative-Icons/Attention" stroke="none" stroke-width="1" fill="none" fill-rule="evenodd">
        <path d="M39.6653502,56.0408601 C38.7448756,56.0408601 37.9986835,55.294668 37.9986835,54.3741934 L37.9986835,31.6658601 C37.9986835,30.7453855 38.7448756,29.9991934 39.6653502,29.9991934 C40.5858248,29.9991934 41.3320169,30.7453855 41.3320169,31.6658601 L41.3320169,54.3741934 C41.3320169,55.294668 40.5858248,56.0408601 39.6653502,56.0408601 Z M69.6653502,63.3325268 L46.3320169,63.3325268 C45.4115423,63.3325268 44.6653502,62.5863347 44.6653502,61.6658601 C44.6653502,60.7453855 45.4115423,59.9991935 46.3320169,59.9991935 L66.7220169,59.9991935 L39.6653502,14.9058601 L12.6086835,59.9991935 L32.9986835,59.9991935 C33.9191581,59.9991935 34.6653502,60.7453855 34.6653502,61.6658601 C34.6653502,62.5863347 33.9191581,63.3325268 32.9986835,63.3325268 L9.66535016,63.3325268 C9.06530461,63.3325268 8.51183287,63.0090625 8.21624648,62.4868714 C7.92066009,61.9646802 7.92859313,61.3239067 8.23701683,60.8091935 L38.2370169,10.8091934 C38.5382196,10.3071732 39.0807373,10 39.6661835,10 C40.2516298,10 40.7941475,10.3071732 41.0953502,10.8091934 L71.0953502,60.8091935 C71.4039269,61.3241623 71.4117039,61.9652937 71.1157095,62.4875961 C70.8197152,63.0098985 70.2656939,63.3325268 69.6653502,63.3325268 Z M39.6653502,63.3325268 C40.5858248,63.3325268 41.3320169,62.5863347 41.3320169,61.6658601 C41.3320169,60.7453855 40.5858248,59.9991935 39.6653502,59.9991935 C38.7448756,59.9991935 37.9986835,60.7453855 37.9986835,61.6658601 C37.9986835,62.5863347 38.7448756,63.3325268 39.6653502,63.3325268 Z" id="Shape-color" fill="#ADB5BD"></path>
    </g>
</svg>

<svg width="80" height="80">
    <title>
        Illustrative Icons/Attention
    </title>
    <path d="M39.665 56.04c-.92 0-1.666-.745-1.666-1.666V31.666a1.667 1.667 0 0 1 3.333 0v22.708c0 .92-.746 1.667-1.667 1.667zm30 7.293H46.332a1.667 1.667 0 0 1 0-3.334h20.39L39.665 14.906 12.61 59.999h20.39a1.667 1.667 0 1 1 0 3.334H9.665a1.666 1.666 0 0 1-1.428-2.524l30-50a1.667 1.667 0 0 1 2.858 0l30 50a1.667 1.667 0 0 1-1.43 2.524zm-30 0a1.667 1.667 0 1 0 0-3.334 1.667 1.667 0 0 0 0 3.334z" fill="#ADB5BD" fill-rule="evenodd"/>
</svg>
